frontend/src/assets/icons/mail-02.svg

<svg width="24" height="24" viewBox="0 0 24 24" fill="none" xmlns="http://www.w3.org/2000/svg">
<g id="mail-02">
<path id="Icon" d="M21.5 18L14.8571 12M9.14286 12L2.50003 18M2 7L10.1649 12.7154C10.8261 13.1783 11.1567 13.4097 11.5163 13.4993C11.8339 13.5785 12.1661 13.5785 12.4837 13.4993C12.8433 13.4097 13.1739 13.1783 13.8351 12.7154L22 7M6.8 20H17.2C18.8802 20 19.7202 20 20.362 19.673C20.9265 19.3854 21.3854 18.9265 21.673 18.362C22 17.7202 22 16.8802 22 15.2V8.8C22 7.11984 22 6.27976 21.673 5.63803C21.3854 5.07354 20.9265 4.6146 20.362 4.32698C19.7202 4 18.8802 4 17.2 4H6.8C5.11984 4 4.27976 4 3.63803 4.32698C3.07354 4.6146 2.6146 5.07354 2.32698 5.63803C2 6.27976 2 7.11984 2 8.8V15.2C2 16.8802 2 17.7202 2.32698 18.362C2.6146 18.9265 3.07354 19.3854 3.63803 19.673C4.27976 20 5.11984 20 6.8 20Z" stroke="black" stroke-width="2" stroke-linecap="round" stroke-linejoin="round"/>
</g>
</svg>

<svg xmlns="http://www.w3.org/2000/svg" width="24" height="24" fill="none" viewBox="0 0 24 24">
  <path stroke="#000" stroke-linecap="round" stroke-linejoin="round" stroke-width="2" d="m21.5 18-6.643-6m-5.714 0L2.5 18M2 7l8.165 5.715c.661.463.992.695 1.351.784a2 2 0 0 0 .968 0c.36-.09.69-.32 1.351-.784L22 7M6.8 20h10.4c1.68 0 2.52 0 3.162-.327a3 3 0 0 0 1.311-1.311C22 17.72 22 16.88 22 15.2V8.8c0-1.68 0-2.52-.327-3.162a3 3 0 0 0-1.311-1.311C19.72 4 18.88 4 17.2 4H6.8c-1.68 0-2.52 0-3.162.327a3 3 0 0 0-1.311 1.311C2 6.28 2 7.12 2 8.8v6.4c0 1.68 0 2.52.327 3.162a3 3 0 0 0 1.311 1.311C4.28 20 5.12 20 6.8 20Z"/>
</svg>
